content/_snippets/hardware/jumper-wires/image.svg

<svg width="54" height="152" viewBox="0 0 54 152" fill="none" xmlns="http://www.w3.org/2000/svg">
<path d="M9 90V22C9 13.1634 16.1634 6 25 6H28C36.8366 6 44 13.1634 44 22V90" stroke="#F39C12" stroke-width="11"/>
<path d="M9.43672 100.29L9.43672 145.98" stroke="#BDC7C7" stroke-width="11" stroke-miterlimit="10" stroke-linecap="round"/>
<path d="M18.2401 85.1873L1.14441e-05 85.1873L1.329e-05 127.417L18.2401 127.417L18.2401 85.1873Z" fill="#58595B"/>
<path d="M44.4367 100.29L44.4367 145.98" stroke="#BDC7C7" stroke-width="11" stroke-miterlimit="10" stroke-linecap="round"/>
<path d="M53.2401 85.1873L35 85.1873L35 127.417L53.2401 127.417L53.2401 85.1873Z" fill="#58595B"/>
</svg>

<svg xmlns="http://www.w3.org/2000/svg" width="54" height="152" fill="none" viewBox="0 0 54 152"><path stroke="#f39c12" stroke-width="11" d="M9 90V22c0-8.837 7.163-16 16-16h3c8.837 0 16 7.163 16 16v68"/><path stroke="#bdc7c7" stroke-linecap="round" stroke-miterlimit="10" stroke-width="11" d="M9.437 100.29v45.69"/><path fill="#58595b" d="M18.24 85.187H0v42.23h18.24z"/><path stroke="#bdc7c7" stroke-linecap="round" stroke-miterlimit="10" stroke-width="11" d="M44.437 100.29v45.69"/><path fill="#58595b" d="M53.24 85.187H35v42.23h18.24z"/></svg>
